img/icon-donate-green.svg

<svg width="256" height="256" viewBox="0 0 256 256" fill="none" xmlns="http://www.w3.org/2000/svg">
<path d="M201.915 93.5335C214.664 93.5335 226.085 87.7044 233.682 78.5061C246.856 71.5539 255.833 57.6496 255.833 41.6596C255.833 18.7174 237.294 0 214.452 0C201.703 0 190.282 5.82913 182.685 15.0274C169.511 21.9796 160.48 35.8839 160.48 51.9274C160.534 74.8696 179.073 93.5335 201.915 93.5335ZM244.731 41.6596C244.731 44.9218 244.2 48.077 243.244 51.0183C242.819 31.7661 229.379 15.7226 211.477 11.3909C212.486 11.2839 213.496 11.2304 214.505 11.2304C231.132 11.2304 244.731 24.8674 244.731 41.6596ZM201.915 21.4983C218.595 21.4983 232.141 35.1352 232.141 51.9274C232.141 68.7196 218.595 82.3566 201.915 82.3566C185.235 82.3566 171.689 68.7196 171.689 51.9274C171.689 35.1352 185.235 21.4983 201.915 21.4983Z" fill="#1ED261"/>
<path d="M251.211 120.38C246.059 114.658 238.197 112.625 233.044 113.267C224.863 114.23 220.029 119.364 215.354 124.337C208.555 131.556 200.852 139.738 179.71 142.305C166.801 143.91 152.14 144.23 139.391 143.535C141.197 143.375 143.003 143.214 144.809 143.001C159.736 141.289 172.22 138.294 178.222 134.872C183.906 131.663 186.988 126.102 186.828 119.257C186.669 111.77 182.207 102.999 177.319 100.539C174.823 99.3095 171.104 99.2025 158.514 99.0956C142.153 98.9886 117.452 98.7747 101.674 93.9083C68.3142 83.6406 40.691 99.8977 35.7507 103.053C32.1916 104.122 14.7678 109.042 0 105.299V116.797C18.8581 120.433 38.9911 113.802 39.9473 113.481L40.691 113.214L41.3285 112.786C41.5941 112.625 67.4643 95.0848 98.4341 104.604C115.752 109.951 141.462 110.165 158.461 110.272C163.986 110.326 170.201 110.379 172.432 110.647C173.76 112.037 175.991 116.529 175.726 120.38C175.566 122.519 174.663 123.963 172.857 124.979C168.289 127.546 156.549 130.273 143.64 131.717C129.51 133.321 116.283 133.268 108.155 131.61C105.127 130.968 102.259 132.626 101.196 135.621C99.9746 138.936 101.037 145.781 105.021 148.027C112.671 152.306 127.385 153.963 138.328 154.605C152.512 155.407 168.076 154.979 181.091 153.375C206.218 150.273 216.204 139.685 223.482 131.984C227.891 127.278 230.441 124.765 234.372 124.337C236.444 124.123 240.64 125.193 242.978 127.813C244.784 129.845 245.262 132.465 244.518 135.941C239.79 157.386 205.049 173.91 203.136 174.766C201.596 175.408 179.763 184.071 149.59 186.852C131.316 188.563 113.733 187.815 97.2654 184.659C76.7605 180.702 58.0086 172.894 41.3816 161.557L39.8942 160.541L38.0881 160.595C36.9725 160.595 14.9271 161.076 0.0531215 164.231V175.729C10.2524 173.162 28.1013 172.092 36.6007 171.825C40.8504 174.659 45.2595 177.333 49.7748 179.739C56.7868 201.184 70.4391 213.537 80.6915 220.115C92.0064 227.388 101.781 229.42 102.206 229.473L104.384 218.457C104.118 218.404 78.4604 212.895 64.7551 186.745C74.4232 190.649 84.5694 193.644 95.0874 195.676C99.2309 196.478 103.481 197.12 107.783 197.654C123.773 215.783 144.331 222.949 145.181 223.27L148.793 212.628C148.634 212.575 137.053 208.51 125.26 198.884C127.067 198.938 128.873 198.991 130.732 198.991C137.266 198.991 143.906 198.67 150.599 198.029C155.699 197.547 160.533 196.906 165.101 196.21C171.529 201.023 173.123 201.772 181.888 205.516C183.375 206.157 185.128 206.906 187.147 207.815L191.556 197.494C189.484 196.585 187.731 195.836 186.244 195.194C184.172 194.339 182.632 193.644 181.304 193.055C197.027 189.419 206.855 185.355 207.492 185.087L207.652 185.034C208.608 184.606 222.101 178.349 234.637 167.974C231.716 174.82 228.05 182.199 223.376 189.579C213.708 204.981 201.808 217.334 188.05 226.425C170.892 237.709 150.652 243.859 127.863 244.714C106.615 245.517 85.4724 239.474 68.3673 227.816C52.7496 217.174 42.6565 202.842 41.2754 189.472L40.9566 186.424L38.2475 185.034C37.9818 184.873 31.5541 181.611 22.6297 180.862C14.5022 180.167 6.85267 181.772 0.0531215 185.462V198.991C11.9523 188.884 25.1796 192.039 30.6511 193.964C33.4665 209.74 44.7283 225.302 62.099 237.121C80.054 249.367 101.993 255.998 124.198 255.998C125.579 255.998 126.907 255.998 128.288 255.945C153.202 255.036 175.46 248.244 194.371 235.73C209.511 225.73 222.526 212.147 233.044 195.301C250.84 166.851 255.355 139.257 255.514 138.027C257.214 129.417 254.133 123.695 251.211 120.38Z" fill="#1ED261"/>
</svg>

<svg width="256" height="256" fill="none" xmlns="http://www.w3.org/2000/svg"><path d="M201.915 93.534c12.749 0 24.17-5.83 31.767-15.028a41.615 41.615 0 0022.151-36.846c0-22.943-18.539-41.66-41.381-41.66-12.749 0-24.17 5.83-31.767 15.027-13.174 6.953-22.205 20.857-22.205 36.9.054 22.943 18.593 41.607 41.435 41.607zm42.816-51.874c0 3.262-.531 6.417-1.487 9.358-.425-19.252-13.865-35.295-31.767-39.627a28.704 28.704 0 013.028-.16c16.627 0 30.226 13.636 30.226 30.429zm-42.816-20.162c16.68 0 30.226 13.637 30.226 30.43 0 16.792-13.546 30.429-30.226 30.429s-30.226-13.637-30.226-30.43c0-16.792 13.546-30.429 30.226-30.429zM251.211 120.38c-5.152-5.722-13.014-7.755-18.167-7.113-8.181.963-13.015 6.097-17.69 11.07-6.799 7.219-14.502 15.401-35.644 17.968-12.909 1.605-27.57 1.925-40.319 1.23 1.806-.16 3.612-.321 5.418-.534 14.927-1.712 27.411-4.707 33.413-8.129 5.684-3.209 8.766-8.77 8.606-15.615-.159-7.487-4.621-16.258-9.509-18.718-2.496-1.23-6.215-1.337-18.805-1.443-16.361-.107-41.062-.321-56.84-5.188-33.36-10.267-60.983 5.99-65.923 9.145-3.56 1.069-20.983 5.989-35.751 2.246v11.498c18.858 3.636 38.991-2.995 39.947-3.316l.744-.267.637-.428c.266-.161 26.136-17.701 57.106-8.182 17.318 5.347 43.028 5.561 60.027 5.668 5.525.054 11.74.107 13.971.375 1.328 1.39 3.559 5.882 3.294 9.733-.16 2.139-1.063 3.583-2.869 4.599-4.568 2.567-16.308 5.294-29.217 6.738-14.13 1.604-27.357 1.551-35.485-.107-3.028-.642-5.896 1.016-6.959 4.011-1.221 3.315-.159 10.16 3.825 12.406 7.65 4.279 22.364 5.936 33.307 6.578 14.184.802 29.748.374 42.763-1.23 25.127-3.102 35.113-13.69 42.391-21.391 4.409-4.706 6.959-7.219 10.89-7.647 2.072-.214 6.268.856 8.606 3.476 1.806 2.032 2.284 4.652 1.54 8.128-4.728 21.445-39.469 37.969-41.382 38.825-1.54.642-23.373 9.305-53.546 12.086-18.274 1.711-35.857.963-52.325-2.193-20.505-3.957-39.256-11.765-55.883-23.102l-1.488-1.016-1.806.054c-1.116 0-23.16.481-38.035 3.636v11.498c10.2-2.567 28.048-3.637 36.548-3.904 4.25 2.834 8.659 5.508 13.174 7.914 7.012 21.445 20.664 33.798 30.917 40.376 11.314 7.273 21.089 9.305 21.514 9.358l2.178-11.016c-.266-.053-25.924-5.562-39.629-31.712 9.668 3.904 19.814 6.899 30.332 8.931 4.144.802 8.394 1.444 12.696 1.978 15.99 18.129 36.548 25.295 37.398 25.616l3.612-10.642c-.159-.053-11.74-4.118-23.533-13.744 1.807.054 3.613.107 5.472.107 6.534 0 13.174-.321 19.867-.962 5.1-.482 9.934-1.123 14.502-1.819 6.428 4.813 8.022 5.562 16.787 9.306 1.487.641 3.24 1.39 5.259 2.299l4.409-10.321c-2.072-.909-3.825-1.658-5.312-2.3-2.072-.855-3.612-1.55-4.94-2.139 15.723-3.636 25.551-7.7 26.188-7.968l.16-.053c.956-.428 14.449-6.685 26.985-17.06-2.921 6.846-6.587 14.225-11.261 21.605-9.668 15.402-21.568 27.755-35.326 36.846-17.158 11.284-37.398 17.434-60.187 18.289-21.248.803-42.39-5.24-59.496-16.898-15.617-10.642-25.71-24.974-27.092-38.344l-.318-3.048-2.71-1.39c-.265-.161-6.693-3.423-15.617-4.172-8.128-.695-15.777.91-22.577 4.6v13.529c11.9-10.107 25.127-6.952 30.598-5.027 2.816 15.776 14.077 31.338 31.448 43.157 17.955 12.246 39.894 18.877 62.099 18.877 1.381 0 2.709 0 4.09-.053 24.914-.909 47.172-7.701 66.083-20.215 15.14-10 28.155-23.583 38.673-40.429 17.796-28.45 22.311-56.044 22.47-57.274 1.7-8.61-1.381-14.332-4.303-17.647z" fill="#1ED261"/></svg>
